!!!!SEGMENT: pl-kk--kk-i-389--002-006_anonim--missa-no-2-benedictus.krn
!!!cenid: 17xx:2465
!!!COM: Anonim
!!!COM-rismID: pe30004985
!!!CDT:
!!!CNT:
!!!OPR: [Missa] No. 2.
!!!OTL: Benedictus
!!!OMV: 006
!!!PDT:
!!!AGN: Sacred; Mass
!!!YEC: Copyright 2022 Narodowy Instytut Fryderyka Chopina (https://polishscores.org)
!!!YEM: License CC-BY-4.0 (https://creativecommons.org/licenses/by/4.0)
!!!SMS-siglum: PL-Kk
!!!SMS-shelfmark: Kk.I.389
!!!SMS-variant:
!!!SMS-altvar:
!!!SMS-shelfwork: 002-006 M
!!!NIFC-rismSourceID: 1001146182
!!!NIFC-rismChildID: 1001146223
!!!NIFC-islandoraID: pl-kk:6976
!!!URL-pdf-islandora: https://repozytorium.nifc.pl/islandora/object/pl-kk%3A6976/datastream/PDF/view
!!!URL-scan: https://polish.musicsources.pl/pl/lokalizacje/galeria/rekopisy/5999/1 @EN{Scan on Polish Music Sources Website} @PL{Skany w portalu Dziedzictwo Muzyki Polskiej w otwartym dostępie}
!!!IIIF:
!!!ONB-nifc: UWAGA: S – skan 4-5, A – 23-24, T – 42-43 , B – 61-62. Części Mszy: Rorate, Kyrie, Gloria, Graduale, Sanctus, Benedictus, Agnus.
!!!OMD:
!!!AIN: 1 alto 1 bass 1 soprn 1 tenor
!!!key: B-
**kern	**text	**kern	**text	**kern	**text	**kern	**text
*part4	*part4	*part3	*part3	*part2	*part2	*part1	*part1
*staff4	*staff4	*staff3	*staff3	*staff2	*staff2	*staff1	*staff1
*ICvox	*	*ICvox	*	*ICvox	*	*ICvox	*
*Ibass	*	*Itenor	*	*Ialto	*	*Isoprn	*
*I"Basso.	*	*I"Tenore.	*	*I"Alto.	*	*I"Soprano.	*
*I'B	*	*I'T	*	*I'A	*	*I'S	*
*clefF4	*	*clefC4	*	*clefC3	*	*clefC1	*
*k[b-e-]	*	*k[b-e-]	*	*k[b-e-]	*	*k[b-e-]	*
*B-:	*	*B-:	*	*B-:	*	*B-:	*
*M2/2	*	*M2/2	*	*M2/2	*	*M2/2	*
*met(c|)	*	*met(c|)	*	*met(c|)	*	*met(c|)	*
=1	=1	=1	=1	=1	=1	=1	=1
*	*	*	*	*	*	*2\right	*
!LO:TX:b:i:t=Benedictus in B. Tacet.	!	!	!	!	!	!	!
1ryy	.	2F/	Be-	2B-/	Be-	2dd\	Be-
*	*	*	*	*	*	*8\right	*
.	.	2F/	-ne-	8e-\L	.	8cc\L	.
.	.	.	.	8d\J	.	8b-\	.
.	.	.	.	8c\L	-ne-	8a\	.
.	.	.	.	8B-\J	.	8b-\J	-ne-
=2	=2	=2	=2	=2	=2	=2	=2
*	*	*4\right	*	*4\right	*	*4\right	*
1ryy	.	4A\	-dic-	4f\	-dic-	4cc\	-dic-
*	*	*	*	*2\right	*	*	*
.	.	4B-\	.	2f\	-tus	4dd\	.
.	.	4c\	-tus	.	.	4ee-\	-tus
.	.	4A\	qui	4f\	qui	4cc\	qui
=3	=3	=3	=3	=3	=3	=3	=3
1ryy	.	4B-\	ve-	8f\L	ve-	8dd\L	ve-
.	.	.	.	8e-\	.	8cc\	.
.	.	4F/	.	8d\	.	8b-\	.
.	.	.	.	8e-\J	.	8cc\J	.
.	.	4F/	-nit	4d\	-nit	4b-\	-nit,
.	.	4F/	in	8f\L	in	8dd\L	in
.	.	.	.	8d\J	.	8b-\J	.
=4	=4	=4	=4	=4	=4	=4	=4
1ryy	.	4F/	no-	4c\	no-	4a\	no-
.	.	8F/	-mi-	8c\	-mi-	8a\	-mi-
.	.	8F/	-ne	8d\	-ne	8b-\	-ne
!	!	!	!	!LO:LB:g=original	!	!LO:LB:g=original	!
=-	=-	=-	=-	=-	=-	=-	=-
.	.	2F/	ve-	8f\L	Do-	8dd\L	Do-
.	.	.	.	8e-\	.	8cc\	.
.	.	.	.	8d\	.	8b-\	.
.	.	.	.	8c\J	-mi-	8a\J	-mi-
=5	=5	=5	=5	=5	=5	=5	=5
1ryy	.	4F/	-nit	4d\	-ni,	4b-\	-ni,
.	.	4A\	in	4f\	in	4cc\	in
.	.	.	.	.	.	16qqee-/	.
.	.	4B-\	no-	8b-\L	no-	4dd\	no-
.	.	.	.	8f\J	.	.	.
*	*	*8\right	*	*	*	*	*
.	.	8A\	-mi-	8e-\	-mi-	8cc\L	-mi-
.	.	8B-\	-ne	8d\	-ne	8b-\J	-ne
=6	=6	=6	=6	=6	=6	=6	=6
1ryy	.	4.F/	Do-	4.d\	Do-	4.b-\	Do-
.	.	8F/	-mi-	8c\	-mi-	8a\	-mi-
.	.	4F/	-ni,	4c\	-ni,	4a\	-ni
.	.	4A\	qui	4e-\	qui	4cc\	qui
=7	=7	=7	=7	=7	=7	=7	=7
1ryy	.	8A/L	ve-	2e-\	ve-	2cc\	ve-
.	.	8F/	.	.	.	.	.
.	.	8G/	.	.	.	.	.
.	.	8A/J	.	.	.	.	.
.	.	4B-\	-nit	4d\	-nit	4b-\	-nit
.	.	4F/	in	8c\L	in	8a\L	in
.	.	.	.	8e-\J	.	8cc\J	.
=8	=8	=8	=8	=8	=8	=8	=8
1ryy	.	8A/L	no-	4.e-\	no-	4.cc\	no-
.	.	8F/	.	.	.	.	.
.	.	8G/	.	.	.	.	.
.	.	8A/J	-mi-	8e-\	-mi-	8cc\	-mi-
.	.	4B-\	-ne	4d\	-ne	4b-\	-ne
.	.	4B-\	Do-	4f\	in	4dd\	in
=9	=9	=9	=9	=9	=9	=9	=9
.	.	.	.	8qa/	.	8qqff/	.
1ryy	.	2E-/	.	4g\	no-	4ee-\	no-
.	.	.	.	8f\L	-mi-	8dd\L	-mi-
.	.	.	.	8e-\J	-ne	8cc\J	-ne
!	!	!	!	!LO:LB:g=original	!	!	!
=-	=-	=-	=-	=-	=-	=-	=-
.	.	4F/	.	4d\	Do-	4b-\	Do-
.	.	4F/	-mi-	4c\	-mi-	4a\	-mi-
!	!	!	!	!	!	!LO:LB:g=original	!
=10	=10	=10	=10	=10	=10	=10	=10
1ryy	.	2F/	-ni,	2d\	-ni	2b-\	-ni,
.	.	4r	.	4r	.	4r	.
.	.	4F/	qui	8c\L	qui	8a\L	qui
.	.	.	.	8e-\J	.	8cc\J	.
=11	=11	=11	=11	=11	=11	=11	=11
1ryy	.	8A/L	ve-	2e-\	ve-	2cc\	ve-
.	.	8F/	.	.	.	.	.
.	.	8G/	.	.	.	.	.
.	.	8A/J	.	.	.	.	.
.	.	4B-\	-nit	4d\	-nit	4b-\	-nit
.	.	4F/	in	8c\L	in	8a\L	in
.	.	.	.	8e-\J	.	8cc\J	.
=12	=12	=12	=12	=12	=12	=12	=12
1ryy	.	8A/L	no-	4.e-\	no-	4.cc\	no-
.	.	8F/J	.	.	.	.	.
.	.	8G/L	-mi-	.	.	.	.
.	.	8A/J	.	8e-\	-mi-	8cc\	-mi-
.	.	4B-\	-ne	4d\	-ne	4b-\	-ne
.	.	4B-\	Do-	4f\	in	4dd\	in
=13	=13	=13	=13	=13	=13	=13	=13
.	.	.	.	.	.	8qqff/	.
1ryy	.	2E-/	.	4g\	no-	4ee-\	no-
.	.	.	.	8f\L	-mi-	8dd\L	-mi-
.	.	.	.	8e-\J	-ne	8cc\J	-ne
.	.	4F/	.	4d\	Do-	4b-\	Do-
.	.	4F/	-mi-	4c\	-mi-	4a\	-mi-
=14	=14	=14	=14	=14	=14	=14	=14
1ryy	.	2F/	-ni,	2d\	-ni.	2b-\	-ni.
!LO:TX:b:i:t=Osanna Da Capo.	!	!	!	!LO:TX:b:i:t=Osanna \nDa Capo.	!	!LO:TX:a:i:t=Osanna \nDa Capo.	!
.	.	2r	.	2r	.	2r	.
!	!	!	!	!	!	!LO:LB:g=original	!
=15||	=15||	=15||	=15||	=15||	=15||	=15||	=15||
*M3/2	*	*M3/2	*	*M3/2	*	*M3/2	*
*k[b-]	*	*k[b-]	*	*k[b-]	*	*k[b-]	*
*2\right	*	*2\right	*	*	*	*	*
!LO:TX:t=P:problem:przepisałem Osannę z Sanctusa	!	!	!	!LO:TX:t=P:problem:przepisałem Osannę z Sanctusa	!	!	!
!	!	!	!	!	!	!LO:TX:t=P:problem:przepisałem Osannę z Sanctusa	!
!	!	!LO:TX:t=P:problem=brak zmiany znaków na k[b-]	!	!	!	!	!
2F\yy	O-	2c\	O-	2f\yy	O-	2a\yy	O-
2A\yy	-san-	2c\	-san-	2c/yy	-san-	2a\yy	-san-
2c\yy	-na	2c\	-na	2B-/yy	-na	2g\yy	-na
=16	=16	=16	=16	=16	=16	=16	=16
1Fyy	in	1c	in	4A/yy	in	4f\yy	in
.	.	.	.	4c\yy	.	4g\yy	.
.	.	.	.	4f\yy	.	4a\yy	.
.	.	.	.	4a\yy	.	4cc\yy	.
2F\yy	ex-	2c\	ex-	4g\yy	.	4b-\yy	.
.	.	.	.	4f\yy	ex-	4a\yy	ex-
=17	=17	=17	=17	=17	=17	=17	=17
2c\yy	-cel-	2c\	-cel-	2f\yy	-cel-	2a\yy	-cel-
2C/yy	-sis	2c\	-sis	2e\yy	-sis	2g\yy	-sis
2C/yy	o-	2c\	O-	2g\yy	O-	2ee\yy	O-
!	!	!LO:LB:g=original	!	!	!	!	!
=18	=18	=18	=18	=18	=18	=18	=18
2C/yy	-san-	2c\	-san-	4g\yy	-san-	4ee\yy	-san-
.	.	.	.	4f\yy	-na	4dd\yy	-na
2E/yy	-na	2c\	-na	4e\yy	in	4cc\yy	in
.	.	.	.	4d\yy	.	4b-\yy	.
4C/yy	in	4c\	in	4c/yy	ex-	4a\yy	.
4C/yy	ex-	4c\	ex-	4B-/yy	.	4g\yy	ex-
!LO:LB:g=original	!	!	!	!	!	!LO:PB:g=original	!
=19	=19	=19	=19	=19	=19	=19	=19
2F\yy	-cel-	2c\	-cel-	2B-/yy	-cel-	2g/yy	-cel-
2F\yy	-sis	2c\	-sis	2A/yy	-sis	2f/yy	-sis
2F\yy	O-	2F/	o-	2c/yy	o-	2a\yy	O-
!	!	!	!	!LO:PB:g=original	!	!	!
=20	=20	=20	=20	=20	=20	=20	=20
2F\yy	-san-	1.F	-san-	4c\yy	-san-	4a\yy	-san-
.	.	.	.	4d\yy	.	4b-\yy	.
2A\yy	.	.	.	4e-\yy	.	4cc\yy	.
.	.	.	.	4d\yy	.	4b-\yy	.
2F\yy	.	.	.	2c\yy	.	2a\yy	.
=21	=21	=21	=21	=21	=21	=21	=21
2B-\yy	-na,	2F/	-na	2d\yy	-na,	2b-\yy	-na,
2G\yy	in	2G/	in	2d\yy	in	2bn\yy	in
2G\yy	ex-	2G/	ex-	2d\yy	ex-	2b\yy	ex-
=22	=22	=22	=22	=22	=22	=22	=22
2G\yy	-cel-	1.G	-cel-	4d\yy	-cel-	4bn\yy	-cel-
.	.	.	.	4e\yy	.	4cc\yy	.
2Bn\yy	.	.	.	4f\yy	.	4dd\yy	.
.	.	.	.	4e\yy	.	4cc\yy	.
2G\yy	.	.	.	4f\yy	.	4dd\yy	.
.	.	.	.	4d\yy	.	4b\yy	.
=23	=23	=23	=23	=23	=23	=23	=23
2c\yy	-sis,	2G/	-sis	2e\yy	-sis	2cc\yy	-sis,
2F\yy	o-	2c\	O-	2f\yy	O-	2a\yy	O-
2E\yy	.	2B-\	.	2g\yy	.	2b-\yy	.
=24	=24	=24	=24	=24	=24	=24	=24
2.F\yy	-san-	2.A\	-san-	2.a\yy	-san-	2.cc\yy	-san-
4G\yy	-na	4B-\	-na	4g\yy	.	4b-\yy	.
2A\yy	in	2c\	in	2f\yy	-na	2a\yy	-na
!	!	!	!	!	!	!LO:LB:g=original	!
=25	=25	=25	=25	=25	=25	=25	=25
2B-\yy	ex-	2d\	ex-	2g\yy	in	2b-\yy	in
2c\yy	-cel-	1c	-cel-	2f\yy	ex-	2a\yy	ex-
2C/yy	.	.	.	2e\yy	-cel-	2g\yy	-cel-
!LO:LB:g=original	!	!LO:LB:g=original	!	!LO:LB:g=original	!	!	!
=26	=26	=26	=26	=26	=26	=26	=26
2F\yy	-sis,	2c\	-sis,	2f\yy	-sis	2a\yy	-sis,
2ryy	.	2r	.	2ryy	.	2ryy	.
2F\yy	o-	2F/	o-	2c\yy	O-	2a\yy	O-
=27	=27	=27	=27	=27	=27	=27	=27
2F\yy	-san-	1.F	-san-	4c\yy	-san-	4a\yy	-san-
.	.	.	.	4d\yy	.	4b-\yy	.
2A\yy	.	.	.	4e-\yy	.	4cc\yy	.
.	.	.	.	4d\yy	.	4b-\yy	.
2F\yy	.	.	.	2c\yy	.	2a\yy	.
=28	=28	=28	=28	=28	=28	=28	=28
2B-\yy	-na,	2F/	-na	2d\yy	-na	2b-\yy	-na,
2G\yy	in	2G/	in	2d\yy	in	2bn\yy	in
2G\yy	ex-	2G/	ex-	2d\yy	ex-	2b\yy	ex-
=29	=29	=29	=29	=29	=29	=29	=29
2G\yy	-cel-	1.G	-cel-	4d\yy	-cel-	4bn\yy	-cel-
.	.	.	.	4e\yy	.	4cc\yy	.
2Bn\yy	.	.	.	4f\yy	.	4dd\yy	.
.	.	.	.	4e\yy	.	4cc\yy	.
2G\yy	.	.	.	4f\yy	.	4dd\yy	.
.	.	.	.	4d\yy	.	4b\yy	.
=30	=30	=30	=30	=30	=30	=30	=30
2c\yy	-sis	2G/	-sis	2e\yy	-sis	2cc\yy	-sis
2F\yy	O-	2c\	O-	2f\yy	in	2a\yy	o-
2E\yy	.	2B-\	.	2g\yy	ex-	2b-X\yy	.
!	!	!	!	!	!	!LO:LB:g=original	!
=31	=31	=31	=31	=31	=31	=31	=31
2.F\yy	-san-	2.A\	-san-	2.a\yy	-cel-	2.cc\yy	-san-
4G\yy	-na	4B-\	-na	4g\yy	.	4b-\yy	-na
2A\yy	in	2c\	in	2f\yy	-sis	2a\yy	in
=32	=32	=32	=32	=32	=32	=32	=32
2B-\yy	ex-	2d\	ex-	2g\yy	ex-	2b-\yy	ex-
2c\yy	-cel-	1c	-cel-	2f\yy	-cel-	2a\yy	-cel-
2C/yy	.	.	.	2e\yy	.	2g\yy	.
=33	=33	=33	=33	=33	=33	=33	=33
1.Fyy	-sis.	1c	-sis.	1fyy	-sis.	1.ayy	-sis,
.	.	2r	.	2ryy	.	.	.
==	==	==	==	==	==	==	==
*-	*-	*-	*-	*-	*-	*-	*-
!!!system-decoration: [(s1,s2,s3,s4)]
!!!ENC: Andrzej Gręziak
!!!END: 2023-11-05
!!!EED: Marta Chmielewska
!!!EEV: 2023-11-27
